packages/kaspersky-hexa-ui-icons/src/iconsSVGs/64x42/FlagZw.svg

<svg width="64" height="42" viewBox="0 0 64 42" fill="none" xmlns="http://www.w3.org/2000/svg">
<g clip-path="url(#clip0_37941_2382)">
<rect width="64" height="42" rx="5" fill="white"/>
<path fill-rule="evenodd" clip-rule="evenodd" d="M-0.199951 5.59995H64V0H-0.199951V5.59995Z" fill="#369D0C"/>
<path fill-rule="evenodd" clip-rule="evenodd" d="M-0.199951 42.0001H64V36.4001H-0.199951V42.0001Z" fill="#369D0C"/>
<path fill-rule="evenodd" clip-rule="evenodd" d="M-0.199951 16.7997H64V11.1997H-0.199951V16.7997Z" fill="#369D0C"/>
<path fill-rule="evenodd" clip-rule="evenodd" d="M-0.199951 30.7997H64V25.1997H-0.199951V30.7997Z" fill="#369D0C"/>
<path fill-rule="evenodd" clip-rule="evenodd" d="M-0.199951 25.1997H64V16.7998H-0.199951V25.1997Z" fill="#262626"/>
<path fill-rule="evenodd" clip-rule="evenodd" d="M-0.199951 11.2001H64V5.6001H-0.199951V11.2001Z" fill="#FFD40E"/>
<path fill-rule="evenodd" clip-rule="evenodd" d="M-0.199951 36.4005H64V30.8005H-0.199951V36.4005Z" fill="#FFD40E"/>
<path fill-rule="evenodd" clip-rule="evenodd" d="M-3 41.9997V0H-0.200023L27.7997 20.9998L-0.200023 41.9997H-3Z" fill="white"/>
<path fill-rule="evenodd" clip-rule="evenodd" d="M8.19989 23.7299L4.08543 26.663L5.60353 21.8436L1.54255 18.8368L6.59525 18.7913L8.19989 14L9.80453 18.7913L14.8572 18.8368L10.7963 21.8436L12.3144 26.663L8.19989 23.7299Z" fill="url(#paint0_linear_37941_2382)"/>
<mask id="mask0_37941_2382" style="mask-type:alpha" maskUnits="userSpaceOnUse" x="-3" y="0" width="31" height="42">
<path fill-rule="evenodd" clip-rule="evenodd" d="M-3 41.9997V0H-0.200023L27.7997 20.9998L-0.200023 41.9997H-3Z" fill="white"/>
</mask>
<g mask="url(#mask0_37941_2382)">
<rect x="0.5" y="0.5" width="63" height="41" rx="4.5" stroke="#F5F5F5"/>
</g>
<path fill-rule="evenodd" clip-rule="evenodd" d="M-0.200023 38.4997L23.1331 20.9998L-0.200023 3.49997V38.4997ZM27.7997 20.9998L-0.200023 41.9997H-3V0H-0.200023L27.7997 20.9998Z" fill="#262626"/>
</g>
<defs>
<linearGradient id="paint0_linear_37941_2382" x1="1.19995" y1="14" x2="1.19995" y2="27.9999" gradientUnits="userSpaceOnUse">
<stop stop-color="#F12F1F"/>
<stop offset="1" stop-color="#DE2010"/>
</linearGradient>
<clipPath id="clip0_37941_2382">
<rect width="64" height="42" rx="5" fill="white"/>
</clipPath>
</defs>
</svg>

<svg xmlns="http://www.w3.org/2000/svg" width="64" height="42" fill="none" viewBox="0 0 64 42"><g clip-path="url(#a)"><rect width="64" height="42" fill="#fff" rx="5"/><path fill="#369d0c" fill-rule="evenodd" d="M-.2 5.6H64V0H-.2zm0 36.4H64v-5.6H-.2zm0-25.2H64v-5.6H-.2zm0 14H64v-5.6H-.2z" clip-rule="evenodd"/><path fill="#262626" fill-rule="evenodd" d="M-.2 25.1997H64v-8.3999H-.2z" clip-rule="evenodd"/><path fill="#ffd40e" fill-rule="evenodd" d="M-.2 11.2H64V5.6H-.2zm0 25.201H64v-5.6H-.2z" clip-rule="evenodd"/><path fill="#fff" fill-rule="evenodd" d="M-3 41.9997V0h2.8l27.9997 20.9998L-.2 41.9997z" clip-rule="evenodd"/><path fill="url(#b)" fill-rule="evenodd" d="M8.1999 23.7299 4.0854 26.663l1.5181-4.8194-4.061-3.0068 5.0527-.0455L8.2 14l1.6046 4.7913 5.0527.0455-4.0609 3.0068 1.5181 4.8194z" clip-rule="evenodd"/><mask id="c" width="31" height="42" x="-3" y="0" maskUnits="userSpaceOnUse" style="mask-type:alpha"><path fill="#fff" fill-rule="evenodd" d="M-3 41.9997V0h2.8l27.9997 20.9998L-.2 41.9997z" clip-rule="evenodd"/></mask><g mask="url(#c)"><rect width="63" height="41" x="1" y="1" stroke="#f5f5f5" rx="5"/></g><path fill="#262626" fill-rule="evenodd" d="m-.2 38.4997 23.333-17.4999L-.2 3.5zm27.9997-17.4999L-.2 41.9997H-3V0h2.8z" clip-rule="evenodd"/></g><defs><linearGradient id="b" x1="1" x2="1" y1="14" y2="28" gradientUnits="userSpaceOnUse"><stop stop-color="#f12f1f"/><stop offset="1" stop-color="#de2010"/></linearGradient><clipPath id="a"><rect width="64" height="42" fill="#fff" rx="5"/></clipPath></defs></svg>
